svgs/sharp-light/films.svg

<svg xmlns="http://www.w3.org/2000/svg" viewBox="0 0 576 512"><!--! Font Awesome Pro 6.6.0 by @fontawesome - https://fontawesome.com License - https://fontawesome.com/license (Commercial License) Copyright 2024 Fonticons, Inc. --><path d="M224 272l0-48 224 0 0 48 0 80-224 0 0-80zm0-80l0-48 0-80 224 0 0 80 0 48-224 0zM464 32l-16 0L224 32l-16 0-16 0-64 0L96 32l0 32 0 64 0 16 0 16 0 96 0 16 0 16 0 64 0 32 32 0 64 0 16 0 16 0 224 0 16 0 16 0 64 0 32 0 0-32 0-64 0-16 0-16 0-96 0-16 0-16 0-64 0-32-32 0-64 0-16 0zM128 64l64 0 0 64-64 0 0-64zm0 96l64 0 0 48 0 48-64 0 0-96zm0 128l64 0 0 64-64 0 0-64zm416 64l-64 0 0-64 64 0 0 64zm0-96l-64 0 0-48 0-48 64 0 0 96zm0-128l-64 0 0-64 64 0 0 64zM32 112l0-16L0 96l0 16L0 464l0 16 16 0 448 0 16 0 0-32-16 0L32 448l0-336z"/></svg>

<svg xmlns="http://www.w3.org/2000/svg" viewBox="0 0 576 512"><!--! Font Awesome Pro 6.4.0 by @fontawesome - https://fontawesome.com License - https://fontawesome.com/license (Commercial License) Copyright 2023 Fonticons, Inc. --><path d="M224 272V224H448v48 80H224V272zm0-80V144 64H448v80 48H224zM464 32H448 224 208 192 128 96V64v64 16 16 96 16 16 64 32h32 64 16 16H448h16 16 64 32V352 288 272 256 160 144 128 64 32H544 480 464zM128 64h64v64H128V64zm0 96h64v48 48H128V160zm0 128h64v64H128V288zm416 64H480V288h64v64zm0-96H480V208 160h64v96zm0-128H480V64h64v64zM32 112V96H0v16V464v16H16 464h16V448H464 32V112z"/></svg>
